images/icon/sidebar_dividend.svg

<svg width="30" height="30" viewBox="0 0 30 30" fill="none" xmlns="http://www.w3.org/2000/svg">
<path d="M16.0188 22.5596C21.078 21.3892 24.2305 16.339 23.0601 11.2797C21.8897 6.22048 16.8395 3.06797 11.7802 4.2384C6.72097 5.40884 3.56846 10.459 4.73889 15.5183C5.90933 20.5775 10.9595 23.73 16.0188 22.5596Z" stroke="#544545" stroke-width="1.2" stroke-miterlimit="22.9256" stroke-linecap="round" stroke-linejoin="round"/>
<path d="M14.1646 24.4317C20.1167 24.4317 24.9363 19.612 24.9363 13.6599" stroke="#544545" stroke-width="1.2" stroke-miterlimit="22.9256" stroke-linecap="round" stroke-linejoin="round"/>
<path d="M22.6186 20.3494L27.6489 25.3797C28.123 25.8538 28.123 26.6439 27.6489 27.1443C27.1748 27.6183 26.3847 27.6183 25.8843 27.1443L20.854 22.1139" stroke="#544545" stroke-width="1.2" stroke-miterlimit="22.9256" stroke-linecap="round" stroke-linejoin="round"/>
<path d="M10.1614 18.4531C10.2404 18.5058 10.3458 18.5321 10.4248 18.5321C10.5565 18.5321 10.7145 18.4531 10.7935 18.3478L17.2724 9.52496C17.4304 9.31426 17.3777 9.02456 17.167 8.86654C16.9563 8.70852 16.6666 8.76119 16.5086 8.97189L10.0561 17.7947C9.92439 18.0054 9.95073 18.2951 10.1614 18.4531Z" fill="#E60000" stroke="#E60000" stroke-width="0.4" stroke-miterlimit="22.9256" stroke-linecap="round" stroke-linejoin="round"/>
<path d="M16.7982 13.9231C15.5867 13.9231 14.5859 14.9502 14.5859 16.2407C14.5859 17.5312 15.5867 18.5584 16.7982 18.5584C18.0097 18.5584 19.0105 17.5312 19.0105 16.2407C19.0105 14.9502 18.0361 13.9231 16.7982 13.9231ZM16.7982 17.6102C16.0871 17.6102 15.5077 16.9782 15.5077 16.2144C15.5077 15.4506 16.0871 14.8185 16.7982 14.8185C17.5093 14.8185 18.0887 15.4506 18.0887 16.2144C18.0887 17.0045 17.5093 17.6102 16.7982 17.6102Z" fill="#E60000" stroke="#E60000" stroke-width="0.4" stroke-miterlimit="22.9256" stroke-linecap="round" stroke-linejoin="round"/>
<path d="M10.5565 13.3965C11.768 13.3965 12.7688 12.3694 12.7688 11.0789C12.7688 9.78837 11.768 8.76123 10.5565 8.76123C9.34504 8.76123 8.34424 9.78837 8.34424 11.0789C8.34424 12.3694 9.34504 13.3965 10.5565 13.3965ZM10.5565 9.68302C11.2676 9.68302 11.847 10.3151 11.847 11.0789C11.847 11.8426 11.2676 12.4747 10.5565 12.4747C9.84544 12.4747 9.26603 11.8426 9.26603 11.0789C9.26603 10.3151 9.84544 9.68302 10.5565 9.68302Z" fill="#E60000" stroke="#E60000" stroke-width="0.4" stroke-miterlimit="22.9256" stroke-linecap="round" stroke-linejoin="round"/>
</svg>

<svg width="30" height="30" fill="none" xmlns="http://www.w3.org/2000/svg"><path d="M16.019 22.56A9.403 9.403 0 1011.78 4.238a9.403 9.403 0 004.24 18.322zm-1.854 1.872c5.952 0 10.771-4.82 10.771-10.772" stroke="#544545" stroke-width="1.2" stroke-miterlimit="22.926" stroke-linecap="round" stroke-linejoin="round"/><path d="M22.619 20.35l5.03 5.03c.474.474.474 1.264 0 1.764-.474.474-1.264.474-1.765 0l-5.03-5.03" stroke="#544545" stroke-width="1.2" stroke-miterlimit="22.926" stroke-linecap="round" stroke-linejoin="round"/><path d="M10.161 18.453a.508.508 0 00.264.08c.131 0 .29-.08.368-.185l6.48-8.823a.468.468 0 00-.106-.658.468.468 0 00-.658.105l-6.453 8.823c-.132.21-.105.5.105.658zm6.637-4.53c-1.211 0-2.212 1.027-2.212 2.318 0 1.29 1 2.317 2.212 2.317 1.212 0 2.213-1.027 2.213-2.317 0-1.29-.975-2.318-2.213-2.318zm0 3.687c-.71 0-1.29-.632-1.29-1.396 0-.763.58-1.395 1.29-1.395.711 0 1.29.632 1.29 1.395 0 .79-.579 1.396-1.29 1.396zm-6.242-4.214c1.212 0 2.213-1.027 2.213-2.317 0-1.29-1.001-2.318-2.213-2.318-1.211 0-2.212 1.027-2.212 2.318 0 1.29 1.001 2.317 2.213 2.317zm0-3.713c.712 0 1.291.632 1.291 1.396 0 .764-.58 1.396-1.29 1.396-.712 0-1.291-.632-1.291-1.396 0-.764.58-1.396 1.29-1.396z" fill="#E60000" stroke="#E60000" stroke-width=".4" stroke-miterlimit="22.926" stroke-linecap="round" stroke-linejoin="round"/></svg>
